X: 4
T:Kitty O'Neill (#204)
M:4/4
L:1/8
S:Capt. F. O'Neill
R:Ree;
K:G
BA|:G2 DG E2 DE|GFGA Bd d2|edcB cBAF|1GBAG E2 DE:|2GBAF G2 z2|
|:Bdde d2 BA|Bddf ef g2|1Bdde d2 B2|cABG EG D2:|
2gfge d2 B2|cABG EG G2||

